svg/fluentui-system-icons/ic_fluent_text_number_format_20_filled.svg

<svg width="20" height="20" viewBox="0 0 20 20" fill="none" xmlns="http://www.w3.org/2000/svg">
<path d="M16.9653 2.97706C17.4879 3.23463 17.882 3.71516 18.1437 4.4446C18.2835 4.83449 18.0808 5.26393 17.6909 5.40378C17.301 5.54363 16.8716 5.34094 16.7317 4.95105C16.5638 4.48275 16.3872 4.36441 16.3022 4.32254C16.178 4.26135 16.0298 4.25008 15.719 4.25008C15.4749 4.25008 15.3302 4.32538 15.2251 4.41928C15.1043 4.52716 14.9995 4.69492 14.9178 4.91394C14.8373 5.12973 14.7938 5.35623 14.7714 5.53611C14.7604 5.6241 14.7551 5.69631 14.7526 5.74439C14.7513 5.76833 14.7507 5.78596 14.7505 5.79623L14.7503 5.80576C14.7503 6.21224 14.7581 6.69579 14.9138 7.09459C14.9865 7.28088 15.0821 7.42112 15.2036 7.52162C15.3206 7.61851 15.5013 7.71168 15.8022 7.7453C15.8939 7.75554 16.0917 7.75546 16.2852 7.68327C16.4566 7.61935 16.6322 7.49899 16.7539 7.22882C16.9241 6.85117 17.3682 6.68296 17.7458 6.85311C18.1235 7.02326 18.2917 7.46734 18.1215 7.84499C17.4856 9.25637 16.0871 9.28644 15.6357 9.23603C15.0774 9.17367 14.6135 8.98037 14.2471 8.67717C13.8852 8.37759 13.6586 8.00413 13.5164 7.64001C13.2497 6.95662 13.2501 6.21455 13.2503 5.8326L13.2503 5.80221L13.2503 5.80079L13.2503 5.7973L13.2504 5.78778L13.2509 5.75889C13.2515 5.73542 13.2526 5.70357 13.2547 5.66452C13.2588 5.58664 13.2669 5.4789 13.2829 5.35095C13.3142 5.09896 13.3781 4.74962 13.5125 4.38957C13.6456 4.03276 13.8631 3.62468 14.2257 3.30068C14.604 2.96271 15.1039 2.75008 15.719 2.75008L15.7536 2.75004C16.027 2.74958 16.5021 2.74877 16.9653 2.97706ZM4.69632 2.75008C5.00991 2.75452 5.28763 2.95362 5.39251 3.24919L7.1667 8.24919C7.30522 8.63956 7.10105 9.0683 6.71069 9.20682C6.32032 9.34534 5.89158 9.14117 5.75306 8.75081L5.66406 8.5H3.55443L3.44963 8.77075C3.3001 9.15703 2.86574 9.34896 2.47946 9.19943C2.09317 9.0499 1.90125 8.61554 2.05078 8.22925L3.98626 3.22925C4.09948 2.93678 4.38272 2.74563 4.69632 2.75008ZM4.65511 5.65659L4.13508 7H5.1318L4.65511 5.65659ZM5.30034 10.752C5.68831 10.7807 5.99414 11.1046 5.99414 11.4999V16.4999C5.99414 16.9141 5.65835 17.2499 5.24414 17.2499C4.82993 17.2499 4.49414 16.9141 4.49414 16.4999V13.8013C4.42911 13.8506 4.36307 13.8976 4.29623 13.9421C3.95159 14.1719 3.48593 14.0788 3.25617 13.7341C3.0264 13.3895 3.11953 12.9238 3.46418 12.6941C4.024 12.3208 4.42548 11.7313 4.51117 11.3396C4.558 11.1256 4.69194 10.953 4.86764 10.8511C4.99558 10.7769 5.14565 10.7401 5.30034 10.752ZM9.83545 12.25C9.52626 12.25 9.25024 12.5405 9.25024 12.8636C9.25024 13.2779 8.91446 13.6136 8.50024 13.6136C8.08603 13.6136 7.75024 13.2779 7.75024 12.8636C7.75024 11.8231 8.59095 10.75 9.83545 10.75C10.545 10.75 11.2409 11.0818 11.635 11.6876C12.0517 12.3282 12.0515 13.1479 11.5948 13.9254C11.3604 14.3243 11.0426 14.6193 10.7488 14.8514C10.6014 14.9678 10.4506 15.0755 10.3131 15.1727L10.253 15.2151C10.135 15.2984 10.0283 15.3737 9.9248 15.4515C9.78456 15.5571 9.66811 15.6542 9.57368 15.75H11.1932C11.6074 15.75 11.9432 16.0858 11.9432 16.5C11.9432 16.9142 11.6074 17.25 11.1932 17.25H8.55151C8.54293 17.25 8.53439 17.2499 8.52588 17.2496C8.51737 17.2499 8.50882 17.25 8.50024 17.25C8.08603 17.25 7.75024 16.9142 7.75024 16.5C7.75024 15.3423 8.4378 14.6933 9.02286 14.253C9.14625 14.1601 9.27405 14.07 9.39102 13.9875L9.44733 13.9477C9.58363 13.8514 9.7058 13.7637 9.81914 13.6742C10.0469 13.4943 10.202 13.3348 10.3015 13.1655C10.5123 12.8067 10.4414 12.6036 10.3776 12.5055C10.2912 12.3727 10.097 12.25 9.83545 12.25ZM14.7216 12.615C14.7394 12.5528 14.7833 12.4621 14.8627 12.392C14.9279 12.3345 15.0612 12.25 15.3466 12.25C15.8386 12.25 15.9428 12.5593 15.9428 12.6364C15.9428 12.8065 15.9054 12.9496 15.8344 13.039C15.7894 13.0955 15.6399 13.25 15.1222 13.25C14.708 13.25 14.3722 13.5858 14.3722 14C14.3722 14.4142 14.708 14.75 15.1222 14.75C15.3243 14.75 15.5845 14.7778 15.7675 14.8637C15.8494 14.9021 15.8865 14.9387 15.9035 14.9625C15.9153 14.9791 15.9428 15.0228 15.9428 15.1364C15.9428 15.4707 15.841 15.5841 15.7883 15.6286C15.7129 15.6922 15.5696 15.75 15.3466 15.75C15.0856 15.75 14.9648 15.7044 14.9064 15.6675C14.8624 15.6396 14.7845 15.5743 14.7129 15.3565C14.5834 14.963 14.1595 14.749 13.766 14.8785C13.3726 15.008 13.1586 15.4319 13.288 15.8253C13.4407 16.2894 13.6994 16.6786 14.1041 16.9348C14.4944 17.1819 14.9345 17.25 15.3466 17.25C15.7967 17.25 16.3264 17.1373 16.7559 16.7748C17.208 16.3932 17.4428 15.8248 17.4428 15.1364C17.4428 14.7385 17.3334 14.3845 17.1251 14.0922C17.0915 14.0449 17.0561 14.0005 17.0194 13.9587C17.3814 13.4945 17.4428 12.963 17.4428 12.6364C17.4428 11.7134 16.6494 10.75 15.3466 10.75C14.7182 10.75 14.226 10.9534 13.8704 11.2671C13.529 11.5682 13.3567 11.932 13.2793 12.2032C13.1655 12.6015 13.3962 13.0165 13.7945 13.1303C14.1928 13.244 14.6079 13.0133 14.7216 12.615ZM8.00024 3.5V8.5C8.00024 8.91421 8.33603 9.25 8.75024 9.25C8.79156 9.25 8.8321 9.24666 8.87161 9.24023V9.24993H10.5001C10.7377 9.24993 11.2333 9.21322 11.6953 8.94467C12.2157 8.64216 12.6181 8.08488 12.6181 7.24138C12.6181 6.8212 12.5263 6.44738 12.3352 6.13365C12.2522 5.99727 12.1559 5.88139 12.0523 5.78331C12.2039 5.50509 12.2936 5.16429 12.2936 4.75879C12.2936 4.35008 12.2129 3.98675 12.044 3.6783C11.873 3.36587 11.634 3.151 11.3836 3.01019C10.9205 2.74974 10.426 2.74994 10.2578 2.75L8.75279 2.75L8.75024 2.75C8.33603 2.75 8.00024 3.08579 8.00024 3.5ZM10.5001 7.74993H9.50024V6.7501H10.2736L10.2879 6.75005H10.4358C10.6271 6.75005 10.8169 6.75974 10.9534 6.82731C11.0049 6.85283 11.0335 6.87992 11.0541 6.91383C11.0756 6.94922 11.1181 7.0409 11.1181 7.24138C11.1181 7.41037 11.0817 7.49652 11.0576 7.53775C11.0328 7.57999 10.9971 7.6155 10.9415 7.64783C10.809 7.72483 10.6206 7.74993 10.5001 7.74993ZM9.62158 5.25005L9.61317 5.2501H9.50024V4.25H10.2502C10.4072 4.25 10.5513 4.26302 10.6483 4.3176C10.6816 4.33632 10.7064 4.35857 10.7283 4.39853C10.7523 4.44249 10.7936 4.54683 10.7936 4.75879C10.7936 4.93532 10.7574 5.02555 10.7343 5.06716C10.7115 5.10813 10.6816 5.13779 10.6388 5.16374C10.5345 5.227 10.3835 5.24893 10.2819 5.25005H9.62158Z" fill="#212121"/>
</svg>

<svg xmlns="http://www.w3.org/2000/svg" width="20" height="20"><path d="M16.965 2.977c.523.258.917.738 1.179 1.468a.75.75 0 0 1-1.412.506c-.168-.468-.345-.587-.43-.628-.124-.062-.272-.073-.583-.073-.244 0-.389.075-.494.17-.12.107-.226.275-.307.494a2.818 2.818 0 0 0-.167.882v.01c0 .406.007.89.163 1.289.072.186.168.326.29.427.117.097.297.19.598.223.092.01.29.01.483-.062a.801.801 0 0 0 .469-.454.75.75 0 0 1 1.367.616c-.635 1.411-2.034 1.441-2.485 1.391-.559-.062-1.022-.256-1.389-.559a2.511 2.511 0 0 1-.73-1.037c-.267-.683-.267-1.425-.267-1.807v-.074l.005-.094a4.305 4.305 0 0 1 .258-1.275c.133-.357.35-.765.713-1.09a2.19 2.19 0 0 1 1.493-.55h.035c.273 0 .748-.001 1.211.227ZM4.696 2.75a.75.75 0 0 1 .697.5l1.774 5a.75.75 0 0 1-1.414.5l-.089-.25h-2.11l-.104.27a.75.75 0 1 1-1.4-.54l1.936-5a.75.75 0 0 1 .71-.48Zm-.04 2.907L4.135 7h.996l-.477-1.343Zm.644 5.095a.75.75 0 0 1 .694.748v5a.75.75 0 0 1-1.5 0v-2.7c-.065.05-.13.097-.198.141a.75.75 0 1 1-.832-1.248c.56-.373.961-.963 1.047-1.354a.748.748 0 0 1 .79-.588Zm4.535 1.498c-.309 0-.585.29-.585.614a.75.75 0 1 1-1.5 0c0-1.04.84-2.114 2.085-2.114.71 0 1.406.332 1.8.938.417.64.417 1.46-.04 2.237-.235.4-.552.694-.846.926-.148.117-.298.224-.436.322l-.06.042a13.98 13.98 0 0 0-.328.236 3.18 3.18 0 0 0-.351.299h1.62a.75.75 0 0 1 0 1.5H8.551a.728.728 0 0 1-.052 0 .75.75 0 0 1-.75-.75c0-1.158.688-1.807 1.273-2.247.123-.093.251-.183.368-.265l.056-.04c.137-.097.259-.184.372-.274.228-.18.383-.34.482-.508.211-.36.14-.562.077-.66-.087-.133-.281-.256-.543-.256Zm4.887.365a.488.488 0 0 1 .14-.223c.066-.057.2-.142.485-.142.492 0 .596.31.596.386 0 .17-.038.314-.109.403-.045.056-.194.211-.712.211a.75.75 0 0 0 0 1.5c.202 0 .463.028.646.114a.337.337 0 0 1 .135.098c.012.017.04.06.04.174 0 .335-.102.448-.155.493-.075.063-.218.121-.441.121-.261 0-.382-.046-.44-.082-.045-.028-.123-.094-.194-.311a.75.75 0 0 0-1.425.468c.153.464.411.854.816 1.11.39.247.83.315 1.243.315.45 0 .98-.113 1.409-.475.452-.382.687-.95.687-1.639a1.768 1.768 0 0 0-.424-1.177c.362-.464.424-.996.424-1.323 0-.923-.794-1.886-2.096-1.886-.629 0-1.121.203-1.477.517a1.986 1.986 0 0 0-.59.936.75.75 0 1 0 1.442.412ZM8 3.5v5a.75.75 0 0 0 .872.74v.01H10.5c.238 0 .733-.037 1.195-.305.52-.303.923-.86.923-1.704 0-.42-.092-.794-.283-1.107a1.692 1.692 0 0 0-.283-.35c.152-.279.242-.62.242-1.025 0-.409-.081-.772-.25-1.08a1.69 1.69 0 0 0-.66-.669c-.463-.26-.958-.26-1.126-.26H8.75A.75.75 0 0 0 8 3.5Zm2.5 4.25h-1v-1h.936c.191 0 .38.01.517.077.052.026.08.053.101.087.022.035.064.127.064.327a.576.576 0 0 1-.06.297.304.304 0 0 1-.117.11.958.958 0 0 1-.44.102Zm-.878-2.5H9.5v-1h.75c.157 0 .301.013.398.068a.191.191 0 0 1 .08.08c.024.044.066.149.066.36a.63.63 0 0 1-.06.31.253.253 0 0 1-.095.096.762.762 0 0 1-.357.086h-.66Z"/></svg>
